X: 1277
T: Bill McGlashan's Polka Mazurka No 1
B: australian traditional tunes wiki
M:3/4
L:1/8
R: Polka Mazurka
Q: 1/4=100
K:G
V:1 
|:d>B|"G"G2G>G F>A|"D7"c2-c2c>A|F2F>F (3EFE|"G"D2-D2d>B|
G2G>G F>A|"D7"c2-c2c>A|F2F>F E>F|"G"G2-G2:|
|:B,>C|"G"D2D>D B,>D|"Am"E2E2F>G|"D7"A2c>A B>A|"G"G2G2B,>C|
D2D>D B,>D|"Am"E2E2F>G|"D7"A2c>A B>A|"G"G2G2:|
% abcbook-tune_id 6342d53a661e6feb3e769768


% abcbook-boost 0
% abcbook-tablature 
% abcbook-transpose 
% abcbook-lastupdated 1665324357150
% abcbook-soundfonts 
% abcbook-repeats 1
% NFF Book 2008

